X:1
T:A minor              Jacob French, 1789
T:Anonymous author, first appearing in 1789
T:Farewell
T:Transcribed from  The New American Melody, 1789.
T:An Anthem
%%score [ 1 2 3 4 ]
L:1/8
Q:1/4=100
M:2/2
K:C
V:1 treble nm="Tr." snm="Tr."
V:2 treble nm="C." snm="C."
V:3 treble-8 nm="T." snm="T."
V:4 bass nm="B." snm="B."
V:1
 z4 | z8 | z8 | %3
"^My    friends,     I  am  go–ing    a  long and tedious journey,  ne–ver  to    re –turn." e4 e4 | %4
 e2 d2 c2 c2 | B4 e2 e2 | e2 e2 e2 e2 | e2 e2 dc B2 | A4 z4 | z8 | z8 | %11
 z4"^I    am       go–ing   a          long  and  tedious   journey,   ne  – ver    to     re   –   turn.                                                                                          I       am" A2 c2 | %12
 B2 ^G2 A4 | c2 B2 A2 A2 | ^G4 G4 | e2 dc B2 cB | A4 z4 | z8 | z8 | z4 e2 e2 | %20
"^go–ing    a       long           journey,  never to  re – turn,    ne –ver    to   re – turn, __________                ne –ver  to re–turn,    I      am    go  –  ing    a       long" e2 e2 e2 e2 | %21
 A2 A2 efe^d | e4 A2 A2 | B2 B2 (B>cBA | G4) z4 | B2 B2 c2 c2 | B4 B2 B2 | ce dc B2 B2 | %28
"^journey,   ne–ver   to   re  –  turn.                                                         Fare ye well my friends, fare ye well  my friends.                                        Fare ye well," A2 A2 ^GGGG | %29
 A8 | z8 | z8 | B3 A ^G2 G2 | A2 GA B2 c2 | A4 z4 | z8 |[M:2/4] e>e d2 |[M:6/8] e2 d c2 B | %38
[M:2/2] A6 ^G2 |: A4 B4 | c2 c2 f2 f2 | e d3 c2 c2 | B2 A2 B4- | B4 A4 |[M:6/4] A2 ^G2 AB c4 d2 | %45
 e4 dc B2 c2 B2 |1[M:2/2] A6 G2 :|2 A8 || A6 z2 | c6 A2 | ^G4 A4 | ^G4 A2 B2 | (c3 d e2) e2 | e8 | %54
 e4 dc B2 | c4 c2 e2 | (d2 c2) d2 e2 | (e4 ^G2) c2 | B2 A2 B4 | c3 c c2 e2 | dc Bc d2 cc | %61
 c3 c d2 e2 | e2 d2 e4 | e3 d c2 cc | B2 A2 ^G2 B2 | A8 |: c2 c2 B2 z2 | A2 A2 ^G2 z2 | %68
 c2 c2 c2 z2 | d2 d>c B2 z2 | e2 dc c2 cB | A8 :| %72
V:2
 z4 | z8 | %2
 z4"^My      friends,  I  am    go  –  ing   a long and tedious jour – ney,       ne–ver  to    re – turn.                                                     I   am" E4 | %3
 E4 A2 G2 | G4 G2 A2 | G2 F2 E2 E2 | E4 E4 | G2 G2 F2 E2 | E4 z4 | z8 | z4 F2 F2 | %11
"^go–ing  a  long    journey,   a           long and tedious   journey,   ne – ver     to    re   –  turn.                                                          I       am       go –ing    a     long" E2 E2 E2 EF | %12
 G2 E2 A4 | G2 F2 E2 ^D2 | E4 E4 | G2 F2 E2 E2 | E4 z4 | z8 | z4 F2 F2 | E2 E2 E2 EF | %20
"^journey, ne–ver  to      re  –  turn,     ne  –  ver,       ne–ver, ne–ver   to   re – turn, __________  ne–ver  to  re–turn.       I   am  go – ing   a       long  jour – ney," G2 G2 GFE^D | %21
 E4 A2 A2 | A2 A2 E2 EF | G2 G2 G4- | G4 G2 G2 | G2 G2 A4 | B2 A2 G2 G2 | G2 A2 G2 GF | %28
"^ne  – ver    to          re     –     turn.                               Fare ye well,      fare  ye   well  my  friends.                                 Fare ye well my friends," E2 E2 E2 E2 | %29
 E8 | z8 | E3 E E4 | E3 E E2 E2 | E4 z4 | z4 C2 C2 | D2 E2 E4 |[M:2/4] z4 | %37
[M:6/8]"^Fare   ye  well      my        friends,   And      God  grant  we may meet to – ge – ther   in     that     world   a – bove, ____  where     trou – ble shall cease, and" G2 F E2 D | %38
[M:2/2] E6 E2 |: E4 G4 | G2 G2 A2 A2 | G G3 E2 EF | G2 A2 ^G4- | G4 A4 |[M:6/4] A2 E2 A2 G4 G2 | %45
"^har–mo–ny  shall  a – bound,  And  –bound.  Hark,  hark,  my   dear  friends, for death has call     –    ed     me,    and    I     must   go  and  lie  down   in   the" G4 F2 E2 E2 E2 |1 %46
[M:2/2] E6 E2 :|2 E8 || E6 z2 | E6 E2 | E4 E4 | E4 EF G2 | (G4 A2) A2 | ^G8 | G4 F2 E2 | E4 E2 E2 | %56
 (F2 E2) F2 EF | %57
"^cold _____ and  si–lent  grave, where the mourners cease from mourning, and where the pri–so–ner is free,  where the rich and the  poor are both  a – like." (G3 F E2) C2 | %58
 D2 CD E4 | A3 A A2 EF | G2 G2 G2 GG | G3 G G2 A2 | E2 A2 ^G4 | G3 G G2 FF | F2 F2 E2 E2 | E8 |: %66
"^Fare  ye   well,         Fare   ye   well,          Fare    ye     well,          Fare   ye   well,         Fare   ye    well        my     friends." G2 G2 G2 z2 | %67
 E2 E2 E2 z2 | E>F G>F E2 z2 | A2 A2 G2 z2 | G2 F2 E2 E2 | E8 :| %72
V:3
 z4 | %1
 z4"^My    friends,   I   am  go–ing   a         long          and    te – dious     jour –  ney,       ne–ver   to     re – turn.                         I   am   go–ing   a   long" E4 | %2
 A4 c2 c2 | B2 B2 c4 | e6 f2 | (e2 d2) c4 | c4 B4 | c2 B2 A2 E2 | A4 z4 | z4 c2 A2 | B2 ^G2 A2 A2 | %11
"^journey,   a             long _____ and   te      –       dious   journey,   ne – ver    to     re   –   turn.    I   am   going   a  long  journey,  never to re – turn, ____________" B2 B2 c4 | %12
 (e2 c2 d2) e2 | (e2 d2 c2) A2 | B4 B4 | c2 A2 B2 ^G2 | A4 E2 E2 | A2 A2 B2 B2 | c2 c2 dedc | B8 | %20
"^ne –ver  to       re       –        turn. ________          ne–ver  to  re   – turn.                          ne –ver to  re – turn,                ne–ver, ne–ver, ne – ver,    ne  –  ver" B2 B2 B2 B2 | %21
 c8 | c2 c2 c2 c2 | d8 | d2 d2 d2 d2 | e8 | g2 f2 e2 ^d2 | e2 f2 e2 d2 | %28
"^to              re        –         –      turn.                                                       Fare  ye    well  my  friends," c4 B4 | %29
 A8 | z8 | z8 | ^G3 A B2 c2 | A4 z4 | z8 | z8 |[M:2/4] z4 |[M:6/8] c2 A BA^G |[M:2/2] A6 B2 |: %39
 c4 d4 | e2 e2 d2 c2 | B G3 c2 c2 | dc d2 e4- | e4 c4 |[M:6/4] d2 c2 d2 e4 d2 | c4 A2 B2 A2 ^G2 |1 %46
[M:2/2] A6 B2 :|2 A8 || A6 z2 | A6 c2 | (BA B2) A4 | B4 c2 d2 | (e3 d c2) c2 | B8 | c4 BA ^G2 | %55
 A4 E2 E2 | (A2 ^G2) A2 c2 | B6 A2 | G2 F2 E4 | e3 e e2 c2 | d2 d2 d2 BB | e3 e d2 c2 | B2 A2 B4 | %63
 c3 d e2 ce | d2 c2 B2 ^G2 | A8 |: e2 c>e d2 z2 | c2 A>c B2 z2 | g2 e>f g2 z2 | f2 d>f e2 z2 | %70
 c2 Ac BA ^G2 | A8 :| %72
V:4
"^My friends, I  am  go–ing   a         long          and   te  –  dious       jour       –        –       ney,        ne–ver   to    re – turn.  I  am  going  a  long  journey, ne–ver" A,,4 | %1
 E,4 E,2 E,2 | D,2 D,2 C,4 | ((E,4 [A,,A,]2)) [B,,B,]2 | (([C,C]2 [B,,B,]2)) [A,,A,]4 | E,8- | %6
 E,4 E,4 | C,2 C,2 D,2 E,2 | A,,4 [A,,A,]2 [A,,A,]2 | [C,G,]2 [C,G,]2 G,2 F,2 | E,2 E,2 F,2 D,2 | %11
"^to  re – turn. ________     I     am    go–ing   a   long   journey,    ne – ver     to     re   –   turn.                           I   am   go – ing   a    long     journey,  never  to  re–" E,2 E,2 (A,,4 | %12
 E,4) D,2 D,2 | C,2 D,2 E,2 F,2 | E,4 E,4 | C,2 D,2 E,2 E,2 | A,,4 z4 | z4 E,2 E,2 | %18
 A,2 A,2 D,2 D,2 | E,2 E,2 E,F,E,D, | %20
"^– turn. ________                ne–ver  to      re    –    turn.                     ne –ver  to      re   –   turn,               ne –ver  to  re – turn,                 ne  –  ver     to ______" E,8 | %21
 [A,,A,]2 [A,,A,]2 [A,,A,]2 [A,,A,]2 | [A,,A,]8 | [G,,G,]2 [G,,G,]2 [G,,G,]2 [G,,G,]2 | [G,,G,]8 | %25
 [E,,E,]2 [E,,E,]2 [A,,A,]2 [A,,A,]2 | E,8 | C,2 D,2 (E,F, G,2) | %28
"^re      –        –        –        –      turn.      Fare ye well,                              Fare  ye  well   my  friends." (A,4 E,4) | %29
 A,,8 | [A,,A,]3 [A,,A,] [A,,A,]4 | z8 | E,3 E, E,2 E,2 | A,,4 z4 | z8 | z8 |[M:2/4] z4 | %37
[M:6/8] C,2 D, E,2 E, |[M:2/2] A,,6 E,2 |: [A,,A,]4 [G,,G,]4 | C,2 C,2 D,2 D,2 | E, G,3 A,2 A,2 | %42
 G,2 F,2 E,4- | E,4 F,4 |[M:6/4] D,2 E,2 D,2 C,4 B,,2 | C,4 D,2 E,2 E,2 E,2 |1[M:2/2] A,,6 E,2 :|2 %47
 A,,8 || A,,6 z2 | A,,6 A,,2 | E,4 A,,4 | E,4 [A,,A,]2 [G,,G,]2 | %52
 ([C,C]2 [B,,B,]2 [A,,A,]2) [A,,A,]2 | E,8 | C,4 D,2 E,2 | A,,4 C,2 C,2 | (D,2 E,2) D,2 C,D, | %57
 E,6 F,2 | G,2 A,2 E,4 | [A,,A,]3 [A,,A,] [A,,A,]2 [A,,A,]2 | %60
 [G,,G,]2 [G,,G,]2 [G,,G,]2 [G,,G,][G,,G,] | [C,C]2 [C,C]2 [B,,B,]2 [A,,A,]2 | %62
 [G,,G,]2 [F,,F,]2 [E,,E,]4 | C,3 C, C,2 C,C, | D,2 D,2 E,2 E,2 | A,,8 |: C,2 C,2 [G,,G,]2 z2 | %67
 [A,,A,]2 [A,,A,]2 E,2 z2 | C,2 C,2 C,2 z2 | %69
"^________________________________________________________\nThis anthem appears in \nSoutrhern Harmony\n, 1835; and in\nThe Sacred Harp, 1844 to the present." D,2 D,2 E,2 z2 | %70
 C,2 D,2 E,2 E,2 | A,,8 :| %72

